.local/share/icons/Gruvbox-Plus-Dark/emotes/symbolic/face-glasses-symbolic.svg

<svg width="16" height="16" version="1.1" xmlns="http://www.w3.org/2000/svg">
  <defs>
    <style type="text/css" id="current-color-scheme">.ColorScheme-Text { color:#ebdbb2; } .ColorScheme-Highlight { color:#458588; }</style>
  </defs>
  <path class="ColorScheme-Text" fill="currentColor" d="m8 1c-2.03 0-3.85 0.87-5.12 2.25 0.35-0.14 0.72-0.25 1.12-0.25 1.39 0 2.54 0.97 2.88 2.25 0.35-0.14 0.72-0.25 1.12-0.25s0.77 0.11 1.13 0.25c0.33-1.28 1.48-2.25 2.87-2.25 0.4 0 0.77 0.11 1.13 0.25-1.28-1.38-3.1-2.25-5.13-2.25zm-4 3c-1.1 0-2 0.9-2 2s0.9 2 2 2 2-0.9 2-2c0 0.55-0.45 1-1 1s-1-0.45-1-1 0.45-1 1-1 1 0.45 1 1c0-1.1-0.9-2-2-2zm8 0c-1.1 0-2 0.9-2 2 0-0.55 0.45-1 1-1s1 0.45 1 1-0.45 1-1 1-1-0.45-1-1c0 1.1 0.9 2 2 2s2-0.9 2-2-0.9-2-2-2zm-4 2c-0.37 0-0.73 0.1-1.03 0.28-0.15 1.52-1.41 2.72-2.97 2.72-1.38 0-2.53-0.95-2.87-2.22-0.07 0.4-0.13 0.8-0.13 1.22 0 3.87 3.13 7 7 7s7-3.13 7-7c0-0.42-0.05-0.82-0.12-1.22-0.35 1.27-1.5 2.22-2.88 2.22-1.56 0-2.82-1.2-2.97-2.72-0.3-0.18-0.66-0.28-1.03-0.28zm-2.83 3.83c0.75 0.75 1.77 1.17 2.83 1.17s2.08-0.42 2.83-1.17l0.7 0.7c-0.93 0.94-2.2 1.47-3.53 1.47s-2.6-0.53-3.53-1.47z"/>
</svg>

<svg xmlns="http://www.w3.org/2000/svg" width="16" height="16" version="1.1">
 <path style="fill:#ebdbb2" d="M 8,1 C 5.97,1 4.15,1.87 2.88,3.25 3.23,3.11 3.6,3 4,3 5.39,3 6.54,3.97 6.88,5.25 7.23,5.11 7.6,5 8,5 8.4,5 8.77,5.11 9.13,5.25 9.46,3.97 10.61,3 12,3 12.4,3 12.77,3.11 13.13,3.25 11.85,1.87 10.03,1 8,1 Z M 4,4 C 2.9,4 2,4.9 2,6 2,7.1 2.9,8 4,8 5.1,8 6,7.1 6,6 6,6.55 5.55,7 5,7 4.45,7 4,6.55 4,6 4,5.45 4.45,5 5,5 5.55,5 6,5.45 6,6 6,4.9 5.1,4 4,4 Z M 12,4 C 10.9,4 10,4.9 10,6 10,5.45 10.45,5 11,5 11.55,5 12,5.45 12,6 12,6.55 11.55,7 11,7 10.45,7 10,6.55 10,6 10,7.1 10.9,8 12,8 13.1,8 14,7.1 14,6 14,4.9 13.1,4 12,4 Z M 8,6 C 7.63,6 7.27,6.1 6.97,6.28 6.82,7.8 5.56,9 4,9 2.62,9 1.47,8.05 1.13,6.78 1.06,7.18 1,7.58 1,8 1,11.87 4.13,15 8,15 11.87,15 15,11.87 15,8 15,7.58 14.95,7.18 14.88,6.78 14.53,8.05 13.38,9 12,9 10.44,9 9.18,7.8 9.03,6.28 8.73,6.1 8.37,6 8,6 Z M 5.17,9.83 C 5.92,10.58 6.94,11 8,11 9.06,11 10.08,10.58 10.83,9.83 L 11.53,10.53 C 10.6,11.47 9.33,12 8,12 6.67,12 5.4,11.47 4.47,10.53 Z"/>
</svg>
